X: 489
T: Bülbül Olsam
C: (Anonim)
O: Turkey
F: http://compmusic.upf.edu/node/140
N: karcigar--kocekce--aydin--bulbul_olsam--
N: makam= karcigar
N: form= kocekce
N: usul= aydin = 9/8
M: 9/8
L: 1/16
K: C _2/4B _3/4e ^3/4f 
Q: 1/4=168
%%MIDI tuningsystem comma53
A2z4cB ABAG A3/2B/cA BG | A2 z2fe dcBA BGAB cABG  | 
w:  *  AĞIRLAMA  |   | 
A2z2 fedc BABG ABcA BG | A2 z2GA Bcde dcde fdec  | 
w:   |   | 
d2z2 GABc dedc B2(3cBA BG | A2 z2GA Bcde dcde fdec  | 
w:   |   | 
d2z2 GABc dedc B2(3cBA BG | A2 z2ed eced ecde fdec  | 
w:   |   | 
d2z2 GABc dedc B2(3cBA BG | A2 z2ed eced ecde fdec  | 
w:   |   | 
d2z2 GABc dedc B2(3cBA BG | A2 z2GA Bcde fga_b agfe  | 
w:   |   | 
dedc BABc dedc B2(3cBA BG | A2 z2GA Bcde fga_b agfe  | 
w:   |   | 
dedc BABc dedc B2(3cBA BG | A3gfe dcBA BGAB cABG  | 
w:   |   | 
A3g fedc BABG ABcA BG | A4z2 Bcd2 z2e3dc2  | 
w:   |  *  *  *  *  Bül *  bül_  | 
d2{f}ed d4 z4 _1/4e2d2 c2 | cB BAA4z4g4g2  | \
w:  ol *  *  *  sam  ko na  da   |  bil *  *  *  sem  dal le  | 
f2ga g2f2 edc2 d2ed c2 | 
w:  re   *  *  *  *  *  *  *  Bül *  *  bül_  | 
d2 {f}edd4z4_1/4e2 d2c2  | cBBA A4 z4 g4 g2 | \
w:  ol *  *  *  sam  ko na  da   |  bil *  *  *  sem  dal le  | 
f2 gag2 f2ed c2d2 {f}edc2  | 
w:  re   *  *  *  *  *  *  *  A *  kan   | 
d2{f}ed d8 =f2f2 f2 | =e3dc2 e2d2 c2B2 A2B2  | \
w:  çeş *  *  *  mim  su yu  da   |  dön *  *  dü  sel *  le  | 
c3=e d2c2 BAG2 A2A2 B2 | 
w:  re   *  *  *  *  *  *  A kan   | 
c2 Bcd4z4=f2 f2f2  | =e3d c2e2 d2c2 B2A2 B2 | \
w:  çeş *  *  mim  su yu  da   |  dön *  *  dü  sel *  le  | 
c12c2 c2c2  | 
w:  re   A lam  da   | 
c4 c8 _7/8B2B2 B2 | _7/8B3A_2/4BA GFG4g4g2  | \
w:  se ni  ka çam  da   |  gur *  bet  *  *  *  *  el le  | 
f2ga g2f2 edc2 d2{f}ed c2 | 
w:  re   *  *  *  *  *  *  *  A *  lam  *  da   | 
f2 edd8_1/4e2 d2c2  | cBBA A8 g4 g2 | \
w:  se *  *  ni  ka çam  da   |  gur *  *  *  bet  el le  | 
f2 gag2 f2ed c2d2 {f}edc2  | 
w:  re   *  *  *  *  *  *  *  İn *  *  *  sa  | 
d2{f}ed d8 =e2=f4 | =e3dc2 e2d2 c2B2 A2B2  | \
w:  fa  *  *  *  gel  be hey   |  zâ *  *  lim  in *  sa  | 
c3=e d2c2 BAG2 A4 B2 | 
w:  fa   *  *  *  *  *  *  Müp te  | 
c2 Bcd4z4=e2 =f4  | =e3d c2e2 d2c2 dcB2 BA | \
w:  lâ *  *  yım  o  kaş  |  la *  *  rı  ke *  ma  | 
A4z2 cBA2 z2de fdec  | 
w:  na   SAZ  | 
d2z2 edcB c2z2 defd ec | d2 z2ed cBc4fg abc'_7/8b  | 
w:   |   | 
agfe dcBc dedc B2(3cBA BG | A2 z2fe dcBA BGAB cABG  | 
w:   |   | 
A2z2 fedc BABG ABcA BG | A4z2 Bcd2 z2e3dc2  | 
w:   |  *  *  *  *  İ *  ki  | 
d2{f}ed d4 z4 _1/4e2d2 c2 | cB BAA4z4g4g2  | \
w:  mi *  *  *  zi  bir  *  o  |  da *  *  *  ya  koy sa  | 
f2ga g2f2 edc2 d2ed c2 | 
w:  lar   *  *  *  *  *  *  *  İ *  *  ki  | 
d2 {f}edd4z4_1/4e2 d2c2  | cBBA A4 z4 g4 g2 | \
w:  mi *  *  *  zi  bir  *  o  |  da *  *  *  ya  koy sa  | 
f2 gag2 f2ed c2d2 {f}edc2  | 
w:  lar   *  *  *  *  *  *  *  Üs *  *  *  tü  | 
d2{f}ed d8 =f2f4 | =e3dc2 e2d2 c2B2 A2B2  | \
w:  mü *  *  *  ze  al tın   |  ki *  *  lit  vur *  sa  | 
c3=e d2c2 BAG2 A4 B2 | 
w:  lar   *  *  *  *  *  *  Üs tü  | 
c2 Bcd4z4e2 =f4  | =e3d c2e2 d2c2 B2A2 B2 | \
w:  mü *  *  ze  al tın   |  ki *  *  lit  vur *  sa  | 
c12c2 c2c2  | c4 c8 _7/8B2B2 B2 | 
w:  lar   Se ni  de   |  ba na  be ni  de   | 
_7/8B3A_2/4BA GFG4g4g2  | f2ga g2f2 edc2 d2{f}ed c2 | 
w:  sa *  na  *  *  *  *  ver se  |  ler   *  *  *  *  *  *  *  Be *  ni  *  de   | 
f2 edd8_1/4e2 d2c2  | cBBA A8 g4 g2 | \
w:  sa *  *  na  se ni  de   |  ba *  *  *  na  ver se  | 
f2 gag2 f2ed c2d2 {f}edc2  | 
w:  ler   *  *  *  *  *  *  *  İn *  *  *  sa  | 
d2{f}ed d8 =e2=f4 | =e3dc2 e2d2 c2B2 A2B2  | \
w:  fa  *  *  *  gel  be hey   |  zâ *  *  lim  in *  sa  | 
c3=e d2c2 BAG2 A4 B2 | 
w:  fa   *  *  *  *  *  *  Müp te  | 
c2 Bcd4z4=e2 =f4  | =e3d c2e2 d2c2 dcB2 BA | \
w:  lâ *  *  yım  o  kaş  |  la *  *  rı  ke *  ma  | 
A8z8z2  | 
w:  na    | 
|


